X: 24961
T: Maid Of Athens, The
R: reel
M: 4/4
K: Dmajor
FAAF GFED|FABc dBAG|FAAF ~G3B|AFdF EFDE|
FAAF GFED|FABc dBAG|FA A/A/A G~B3|AFdF EFDe||
fddf geeg|fded cAAe|~f3d geeg|fdec Adde|
~f3d geeg|fded cAAG|FAAF FGBG|AFdF EFDE||

